X: 1
T:Marquis of Tullibardine
M:C
L:1/8
Q:80
C:
S:Reel
K:HP
|: a|
e3/2A/2{g}c/2{d}A3/2{g}e3/2A/2{GAG}A3/2f/2|
{g}e3/2A/2{g}c/2{d}A3/2{gef}e2{g}d3/2c/2|
{g}B3/2c/2{g}d3/2e/2{g}f3/2B/2{G}B/2a3/2|  !
B3/2c/2{g}d3/2e/2{gf}g2e/2a3/2e3/2A/2{g}c/2{d}A3/2{g}e3/2A/2{GAG}A3/2f/2
|
{g}e3/2A/2{g}c/2{d}A3/2{gef}e2{g}d3/2c/2|
{g}d3/2e/2{g}f/2a3/2{fg}f3/2e/2{g}c/2e3/2|  !
{g}B3/2c/2{g}d/2e3/2{gf}g2{a}f/2g3/2|] [|
a/2A3/2{g}A/2{d}A3/2{g}f3/2e/2{g}c/2e3/2|
a/2A3/2{g}A/2{d}A3/2{g}f3/2e/2{g}d3/2c/2|  !
a/2B3/2{g}B/2{d}B3/2{g}f3/2e/2{g}c/2e3/2|
a/2B3/2{g}B/2{d}B3/2{gfg}f2{g}e/2f3/2a/2A3/2{g}A/2{d}A3/2{g}f3/2e/2{g}c/
2e3/2|
a/2A3/2{g}A/2{d}A3/2{g}f3/2e/2{g}d3/2c/2|  !
{g}d3/2e/2{g}f/2a3/2{fg}f3/2e/2{g}c/2e3/2|
{g}B3/2c/2{g}d/2e3/2{gf}g2{a}f/2a3/2|]
